X:1
T:Amoroso
T:Cécile Chaminade
T:Amoroso
T:Armand Silvestre  (trans. Dr. Th. Baker)
T:OpenScore (CC0)
T:OpenScore (CC0)
T:OpenScore (CC0)
T:OpenScore (CC0)
T:OpenScore (CC0)
C:Cécile Chaminade
Z:Armand Silvestre
Z:OpenScore (CC0)
%%score 1 { ( 2 3 ) | ( 4 5 ) }
L:1/8
Q:1/4=80
M:3/4
K:Eb
V:1 treble nm="Voice"
V:2 treble nm="Piano"
V:3 treble 
V:4 bass 
V:5 bass 
V:1
"^Moderato" z6 | z6 |!mf! e d c2 B c | d c (G2 !breath!F2) | B!<(! =B B2 c ^c | %5
w: ||Du prin- temps, son- nant|le bap- tê- me,|A- vril passe aux cieux|
w: ||Of the Spring, 'neath her|sky of a- zure|A- pril gai- ly the|
 d e!<)! f2- f/ z/!f! f |!f! _g f =e2 B2 | _g f!>(! =e2!>)! e2 |!p! f B _e2 d c | %9
w: é- cla- tants. _ Il|n'est de char- me|qu'en toi mê- me,|T'ai- je dit de- vant|
w: birth doth sing. _ A-|part from thee there|is no pleas- ure,|So I told thee be-|
 c B B2- B/ z/!p! B |"^dolcissimo" c c c c c c | (f2 !breath!A3) _d |"^cresc." =d d d d d3/2 d/ | %13
w: le prin- temps. _ Au|coeur én- a- mou- ré des|ro- ses, Qu'‿A-|\-vril mette‿ un ray- on joy-|
w: \-fore the Spring. _ To|hearts en- am- our- èd of|ros- es, Tho'|dart a ray from A- pril|
!mf! !breath!g4!f! g g | !>!a2 g f e d | (f2 e2-) e/ z/ G | %16
w: eux, Que me|fait la beau- té des|cho- ses? _ Il|
w: skies, What  care|I for all charms of|Na- ture? _ There|
[Q:1/4=70]"^poco rit." A G A[Q:1/4=65] c D F |[Q:1/4=80]"^a tempo" E3 z z2 |!mf! (ed) c c B c | %19
w: n'est clar- té que dans tes|yeux.|Aux * bois, la main de|
w: is no light save in thine|eyes.|When * Sum- mer's~ hand in|
 d c (G2 F2) |"^cresc." B =B B2 c ^c | d e f2- f/ z/!f! f | _g f =e2 B2 | _g f =e2 e2 | %24
w: l'é- té sè- me|Les par- fums a- vec|les cou- leurs _ Il|n'est de char- me|qu'en toi mê- me|
w: lav- ish meas- ure|Strews  sweet o- dors o'er|fields and bow'rs. _ A-|part from thee there|is no pleas- ure,|
!p! f B _e2 d c | c B B2- B/ z/ B | c c c c c c | f2 !breath!A3!mp!"^cresc." _d | %28
w: T'ai- je dit sous les|bois en fleurs. _ Sous|l'ai- le des au- tans mo-|ro- ses Un|
w: So I told thee 'mid|o- p'ning flow'rs. _ One|day 'neath des- ert winds con-|sum- ing The|
 =d d d d!mf! d d |"^cresc." !breath!g4!f! g g | !>!a2 g f e d | (f2 e2-) e/ z/!mf![Q:1/4=75] G | %32
w: jour les lys s'ef- feuil- le-|ront; Que me|fait la beau- té des|cho- ses? _ Il|
w: lil- y's snow- y head will|bow; What care|I for all charms of|Na- ture? _ There|
[Q:1/4=70] A[Q:1/4=67]"^poco rit." G[Q:1/4=65] A c D F |[Q:1/4=80]"^a tempo" E3 z z2 | %34
w: n'est blan- cheur que sur ton|front.|
w: is no white save of thy|brow.|
!f! e d c2 B c | d c G2 !breath!F B |"^cresc." B!<(! =B B2 (c^c) | d e!<)! (f2 f/) z/!f! f | %38
w: Bri- sant l'or de son|di- a- dè- me, Le|ciel vib- rant d'a- *|\-zur se teint. _ Il|
w: 'Mid the glow of his|gold- en treas- ure The|glo- rious day a- *|new is born. _ A-|
 _g f =e2 _B2 |!p! _g f =e2 e2 |!p! f B e2 d =c | c B B2- B/ z/ B | c c c c c c | %43
w: n'est de char- me|qu'en toi- mê- me,|T'ai- je dit de- vant|le ma- tin! _ Ce|soir, le long des vit- res|
w: part from thee there|is no pleas- ure,|So I told thee be-|fore the morn! _ At|eve a- long the clos- èd|
 (f2 A2)"^cresc." z _d/ d/ | =d2 d d d3/2!f! d/ |!<(! !breath!g4!<)!!ff! g g | !>!a2 g f e d | %47
w: clo- ses Sif- fle-|ra l'a- qui- lon mo-|queur. Que me|fait la beau- té des|
w: win- dow Cold- ly|whist- ling the blast may|dart; What care|I for all charms of|
!>(! (f2!>)! e2-) e/ z/!f! G |[Q:1/4=77]"^poco rit." A[Q:1/4=75] G A[Q:1/4=70] c D[Q:1/4=65] F | %49
w: cho- ses? _ Il|n'est ciel pur que dans ton|
w: Na- ture? _ There|is no heav'n save in thy|
 E3 z z2 |] %50
w: coeur.|
w: heart.|
V:2
!mf! !arpeggio!!>![B,EGB] z!>(! z2 z2 | z6 | z6!>)! | z2{/b'} !^![bb']2 x2 | %4
"_cresc." ([EB][E=A=B][EAB][EAB][EAc][EA^c]) | %5
 (!arpeggio![D_A_Bd][ABe][ABdf]!f![ABdf][ABdf][ABdf]) | %6
!f! ([_d_g_d'][dfd'][d=ed'][ded'][ded'][ded']) | %7
!f!!>(! ([_d_g_d'][dfd'][d=ed'][ded'][ded'][ded'])!>)! | %8
!p! !arpeggio![=dfb=d']2 ([G=A_e][GAe][FAd][EAc]) | ([EFc][DFB][DFB][DFB][DFB][DFB]) | c6 | _d6 | %12
"_cresc." =d6 |!mf!"_cresc." (e2 [EGB][EGB][EG=B][EGB]) |!f! [D_Ac]4 [fbf']2 | %15
!>(!!8va(! (([f'b'-f'']2 [e'b'e'']))!>)!!8va)! z!mf! !>![_DG]2 | ([CA][_DG] [CA]) z A2 | %17
"^a tempo" !arpeggio![EG] z z2 z2 | ([egb][dgb][cgb][cgb][Bgb][cgb]) | %19
 ([dgb][cgb] [DAB][DAB][DAB][DAB]) |"_cresc." ([B,EB][E=A=B][EAB][EAB][EAc][EA^c]) | %21
 (!arpeggio![D_A_Bd][ABe][ABdf][ABdf][ABdf][ABdf]) | %22
!f! ([_d_g_d'][dfd'] [d=ed'][ded'] [ded'][ded']) | %23
!>(! ([_d_g_d'][dfd'] [d=ed'][ded'] [ded']!>)![ded']) | %24
!p! !arpeggio![=dfb=d']2 ([G=A_e][GAe][FAd][EAc]) | ([EFc][DFB][DFB][DFB][DFB][DFB]) | =c6 | _d6 | %28
"_cresc." =d6 |"_cresc." (e2 [EGB][EGB][EG=B][EGB]) |!f! [D_Ac]4 [fbf']2 | %31
!>(!!8va(! (([f'b'-f'']2 [e'b'e'']))!>)!!8va)! z!mf! !>![_DG]2 | %32
 ([CA][_DG] [CA]) z !arpeggio![=DA]2 |"^a tempo" !arpeggio![EG] z z2 z2 | %34
!mf! ([ege'][dgd'][cgc'][cgc'][Bgb][cgc']) | ([dgd'][cgc'][dgb][dgb][dfb][dfb]) | %36
"_cresc." (!arpeggio![B,EB][E=A=B][EAB][EAB][EAc][EA^c]) | %37
 ([D_A_Bd][ABe][ABdf][ABdf][ABdf][ABdf]) |!f! ([_d_g_d'][dfd'][d=ed'][ded'][ded'][ded']) | %39
!p! ([_d_g_d'][dfd'][d=ed'][ded'][ded'][ded']) | !arpeggio![=dfb=d']2 ([G=A_e][GAe][FAd][EAc]) | %41
!>(! ([EFc][DFB][DFB][DFB][DFB]!>)![DFB]) |!p! c6 |"_cresc." _d6 |!mf!"_cresc." =d6 | %45
!f!"_cresc." (e2 [EGB][EGB][EG=B]!ff![EGB]) | [D_Ac]4 [fbf']2 | %47
!>(!!8va(! (([f'b'-f'']2 [e'b'e'']))!>)!!8va)! z!f! [_DG]2 | ([CA][_DG] [CA]) z !arpeggio![=DA]2 | %49
 !arpeggio![EG]2 [ege']4 |] %50
V:3
 x [B,EGB][B,EGB][B,EGB][B,EGB][B,EGB] | [B,EGB][B,EGB][B,EGB][B,EGB][B,EGB][B,EGB] | %2
 ([B,EGB][B,EGB]!mp![B,EGB][B,EGB][B,EGB][B,EGB]) | [CEGB][CEGB][DFAB][DFAB][DFAB][DFAB] | x6 | %5
 x6 | [_GB][FB] [=EB]4 | [_GB][FB] [=EB]4 | x6 | x6 | !arpeggio![C=EG][CEG][CEG][CEG][CEG][CEG] | %11
 (!arpeggio![_DFA][DFA][DFA][DFA][DFA]!mp![DFA]) | (!arpeggio![=D^F=A][DFA][DFA][DFA][DFA][DFA]) | %13
 !arpeggio![EG=A][EGA] x4 | x6 |!8va(! x3!8va)! x3 | x6 | x6 | x6 | x6 | x6 | x6 | %22
 [_GB][FB] [=EB]4 | [_GB][FB] [=EB]4 | x6 | x6 | (!arpeggio![C=EG][CEG][CEG][CEG][CEG][CEG]) | %27
 !arpeggio![_DFA][DFA][DFA][DFA][DFA]!mp![DFA] | %28
 (!arpeggio![=D^F=A][DFA][DFA][DFA][DFA]!mf![DFA]) | !arpeggio![EG=A][EGA] x4 | x6 | %31
!8va(! x3!8va)! x3 | x6 | x6 | x6 | x6 | x6 | x6 | [_GB][FB] [=EB]4 | [_GB][FB] [=EB]4 | x6 | x6 | %42
 (!arpeggio![C=EG][CEG][CEG][CEG][CEG][CEG]) | (!arpeggio![_DFA][DFA][DFA][DFA][DFA][DFA]) | %44
 (!arpeggio![=D^F=A][DFA][DFA][DFA][DFA][DFA]) | !arpeggio![EG=A][EGA] x4 | x6 | %47
!8va(! x3!8va)! x3 | x6 | x2 [B,EG]4 |] %50
V:4
"^m.g." !>![E,,,E,,]6- | [E,,,E,,]6 | z6 | x4"^m.d." !^!B,,2 | [G,B,][_G,B,] [G,B,]2 [F,=A,]2 | %5
 z !>!E !>!F4 | z4 [_G,,,_G,,]2- | [G,,,G,,]6 | (F,,F,-) F,2 [F,,,F,,]2 | [B,,,B,,]6 | %10
!pp! [B,,,B,,]2 [B,,,B,,]2 [B,,,B,,]2 |!<(! [B,,,B,,]2 [B,,,B,,]2 [B,,,B,,]2!<)! | %12
 [B,,,B,,]2 [B,,,B,,]2 [B,,,B,,]2 | !^![B,,,B,,]2 !^!B,2 !^!=B,2 | [_B,,F,_B,]4[K:treble] [ABd]2 | %15
 ([G-B-f]2 [GBe]) z[K:bass] [=E,B,]2 |"^colla voce" x4 !arpeggio![A,=D]2 | %17
 [G,B,] ([B,EG][B,EG][B,EG][B,EG][B,EG]) | ([EG][DEG][CEG][CEG][B,EG][CEG]) | [DEG][CEG] B,,4 | %20
 [G,,G,][_G,,_G,] [G,,G,]2 [F,,F,]2 | z !>!E !>!F4 | x4 [_G,,,_G,,]2- | [G,,,G,,]6 | %24
 (F,,F,-) F,2 [F,,,F,,]2 | [B,,,B,,]6 | [B,,,B,,]2 [B,,,B,,]2 [B,,,B,,]2 | %27
!<(! [B,,,B,,]2 [B,,,B,,]2 [B,,,B,,]2!<)! | [B,,,B,,]2 [B,,,B,,]2 [B,,,B,,]2 | %29
 !^![B,,,B,,]2 !^!B,2 !^!=B,2 | [_B,,F,_B,]4[K:treble] [ABd]2 | %31
 ([G-B-f]2 [GBe]) z[K:bass] !>![=E,B,]2 | x4 A,2 | [G,B,] ([B,EG][B,EG][B,EG][B,EG][B,EG]) | %34
 ([EG][DEG][CEG][CEG][B,EG][CEG]) | x2 [B,DA]2 [B,DA][B,DA] | [G,,G,][_G,,_G,] [G,,G,]2 [F,,F,]2 | %37
 z !^!E !^!F4 | x4 [_G,,,_G,,]2- | [G,,,G,,]6 | (F,,F,-) F,2 [F,,,F,,]2 | [B,,,B,,]6 | %42
 ([B,,,B,,]2 [B,,,B,,]2 [B,,,B,,]2) | ([B,,,B,,]2 [B,,,B,,]2 [B,,,B,,]2) | %44
 [B,,,B,,]2 [B,,,B,,]2 [B,,,B,,]2 | !^![B,,,B,,]2 !^!B,2 !^!=B,2 | [_B,,F,_B,]4[K:treble] [ABd]2 | %47
 ([G-B-f]2 [GBe]) z[K:bass] [=E,B,]2 | x4 A,2 | [G,B,]2 x4 |] %50
V:5
 x6 | x6 | x6 | x6 | x6 | !^![B,,,B,,]6 | x6 | x6 | F,,2 x4 | x6 | B,,,C,, B,,,C,, B,,,C,, | %11
 B,,,C,, B,,,C,, B,,,C,, | B,,,C,, B,,,C,, B,,,C,, | x6 | x4[K:treble] x2 | x4[K:bass] x2 | %16
 ([F,A,][=E,B,] [F,A,]) z [B,,,B,,]2 | [E,,,E,,]6 | x6 | x2 (G,2 F,2) | x6 | [B,,,B,,]6 | x6 | x6 | %24
 F,,2 x4 | x6 | B,,,C,, B,,,C,, B,,,C,, | B,,,C,, B,,,C,, B,,,C,, | B,,,C,, B,,,C,, B,,,C,, | x6 | %30
 x4[K:treble] x2 | x4[K:bass] x2 | ([F,A,]"^colla voce"[=E,B,] [F,A,]) z [B,,,B,,]2 | [E,,,E,,]6 | %34
 x6 | [DEG][CEG] z !>!B,,3 | x6 | [B,,,B,,]6 | x6 | x6 | !>!F,,2 x4 | x6 | %42
 B,,,C,, B,,,C,, B,,,C,, | B,,,C,, B,,,C,, B,,,C,, | B,,,C,, B,,,C,, B,,,C,, | x6 | %46
 x4[K:treble] x2 | x4[K:bass] x2 | ([F,A,][=E,B,] [F,A,])"^rit." z [B,,,B,,]2 | E,,E,,,- E,,,4 |] %50

